!!!OTL: ICH KENN EIN WUNDERSCHOENES LAND
!!!ARE: Europa, Mitteleuropa, Deutschland
!!!SCT: F0428
!!!YEM: Copyright 1995, estate of Helmut Schaffrath.
**kern
*ICvox
*Ivox
*M4/4
*k[f#c#g#d#]
*E:
{4B
=1
4.e
8e
4f#
4g#
=2
4.g#
8f#
4e}
{4e
=3
4c#
4d#
4e
8g#
8f#
=4
4.d#
8c#
4B}
{4B
=5
4.e
8e
4d#
4c#
=6
4.B
8A
4G#}
{4A#
=7
2B
2c#
=8
2.d#
8f#
8e
=9
2d#
2c#
=10
2B
4r}
{4B
=11
4.dn
8dn
4c#
4B
=12
4.A
8B
4c#}
{4f#
=13
4.d#
8d#
4e
4c#
=14
4.B
8A
4G#
8r}
{8B
=15
4e
8r
8e
4f#
8r
8f#
=16
2.g#
8r}
{8e
=17
4a
4g#
4f#
4e
=18
2d#
2e
=19
2f#
8r}
{8d#
8e
8f#
=20
2.g#
4f#
=21
2.e
4d#
=22
4e}
{4e
4f#
4g#
=23
2.a
4f#
=24
2e
2d#
=25
2e
4r}
==
!!!AGN: Vaterlands -, Heimat - Lied, nationalistisch; Sachsen - Lied
!!!ONB: ESAC (Essen Associative Code) Database: FINK
!!!AMT: simple quadruple
!!!AIN: vox
!!!EED: Helmut Schaffrath
!!!EEV: 1.0
*-
